X:1
T:Five men went together
M:3/4
L:1/8
B:Stanford/Petrie (1905, No. 869)
Z:AK/Fiddler's Companion
K:Eb
GB B>A GE|AG F>E DB,|ED CD EF|GA Be cB|
BG FA G>F|F2E2||E/E/ EF|G/G/G AB/B/ BB/c/|G2 Bc GE|
F2E3||B/B/|e/e/e e2 de/d/|B/B/c/c/ G2 AG/F/|E/E/E F2 GA/G/|F2E2||

